t3.svg

<svg viewBox="0 0 24 24" xmlns="http://www.w3.org/2000/svg"><path d="M13.8142 1.04222L13.2972 3.26369C12.9759 4.64429 11.0106 4.64481 10.6884 3.2649L10.171 1.04963C9.96693 0.174428 8.97515-0.255411 8.19691 0.19392L3.28855 3.02773C2.39509 3.54329 2.39509 4.83213 3.28855 5.34769L11.3306 9.99142C11.7449 10.2307 12.2556 10.2307 12.6701 9.99142L20.7121 5.34769C21.6049 4.83213 21.6049 3.54329 20.7114 3.02773L15.7889 0.185813C15.01-0.264207 14.0182 0.166321 13.8142 1.04222M1.7288 15.6903L3.91173 15.0272C5.26745 14.6155 6.25112 16.3167 5.21691 17.2865L3.55676 18.8421C2.90117 19.4567 3.0245 20.5299 3.80324 20.9794L8.71177 23.8132C9.60437 24.3288 10.7209 23.6846 10.7209 22.6538L10.7209 13.367C10.7209 12.8885 10.4654 12.4466 10.0511 12.2074L2.00909 7.56365C1.11631 7.04825 0 7.69302 0 8.72398L0 14.4087C0 15.3082 0.868454 15.9516 1.7288 15.6903M22.2719 15.6903L20.0888 15.0272C18.7325 14.6155 17.7495 16.3167 18.7838 17.2865L20.4432 18.8421C21.0995 19.4567 20.9755 20.5299 20.1973 20.9794L15.2889 23.8132C14.3956 24.3288 13.2798 23.6846 13.2798 22.6538L13.2798 13.367C13.2798 12.8885 13.5344 12.4466 13.9496 12.2074L21.9909 7.56365C22.8842 7.04825 24 7.69302 24 8.72398L24 14.4087C24 15.3082 23.1322 15.9516 22.2719 15.6903" fill="#f07c3f"/></svg>

<svg viewBox="0 0 24 24" xmlns="http://www.w3.org/2000/svg"><path d="m13.814 1.042-.517 2.222c-.321 1.38-2.286 1.38-2.609 0l-.517-2.214A1.34 1.34 0 0 0 8.197.194L3.289 3.028a1.339 1.339 0 0 0 0 2.32L11.33 9.99c.414.24.925.24 1.34 0l8.041-4.643a1.34 1.34 0 0 0 0-2.32L15.788.186a1.34 1.34 0 0 0-1.975.856M1.73 15.69l2.183-.663c1.355-.411 2.34 1.29 1.305 2.26l-1.66 1.555a1.34 1.34 0 0 0 .246 2.137l4.909 2.834a1.34 1.34 0 0 0 2.009-1.16v-9.286c0-.479-.256-.92-.67-1.16L2.01 7.564A1.34 1.34 0 0 0 0 8.724v5.685c0 .9.868 1.543 1.729 1.281m20.543 0-2.183-.663c-1.356-.411-2.34 1.29-1.305 2.26l1.66 1.555a1.34 1.34 0 0 1-.247 2.137l-4.908 2.834a1.34 1.34 0 0 1-2.01-1.16v-9.286c0-.479.255-.92.67-1.16l8.042-4.643A1.34 1.34 0 0 1 24 8.724v5.685c0 .9-.868 1.543-1.728 1.281" fill="#f07c3f"/></svg>
